X: 1
T: Provost Skene's House
C: Nan Main
R: strathspey
Z: 2014 John Chambers <jc:trillian.mit.edu>
S: printed copy of unknown origin
N: Suggested tune for Gramachie
M: C
L: 1/8
K: A
f |\
"E7"e>d c>B "A"c<A A>c | "B7"B>A G>F "E"G<E E>G |\
"D"F>G A>F "A"E>A c>e | "B7"(3BcB (3Bc^d "E"e<E E> ||
f |\
"E7"(3efe (3efg "A"aA A>c | "B7"(3c^dc (3cd=f "F#m"^fF F>A |\
"A7"(3ABA (3ABc "D"d>f a>f | "E7"(3edc (3dcB "A"A3 |]
"E7"E |\
"Am"A>B =c>d e<a a>^a | "Am"=a<e e>=g "Dm"=f<d d>=f |\
"E7"e<G G>d "Am"=c<A A>=c | "B7"(3BAB (3AGF "E"G<E E> ||
E |\
"A"A>B c>d e<a a>e | "D"f<a a>f "A"e<a a>f |\
"E7"e>d c>B "A"c<A "D"A>F | "E7"(3DEF (3DCB, "A"A,3 |]
